X: 109
T: 109. Singen wir aus Herzensgrund
N: Derived from chor109.krn
C: Johann Sebastian Bach
%%abc-version 2.0
%%abcx-abcm2ps-target-version 5.9.1 (29 Sep 2008)
%%abc-creator hum2abc beta
%%abcx-conversion-date 2019/03/11 17:28:18
%%abc-edited-by Craig Stuart Sapp
%%humdrum-veritas 3687971983
%%humdrum-veritas-data 3359546271
%%
%%barnumbers 0
L: 1/4
M: 3/4
%%staves [1 2 3 4]
V: 1 clef=treble
V: 2 clef=treble
V: 3 clef=treble-8
V: 4 clef=bass
K: Bb
[V:1] GG/A/B | 
[V:2] DG/^F/G | 
[V:3] B/c/dd | 
[V:4] G,/A,/ B,/A,/G, | 
[V:1] A2G | 
[V:2] G^FG | 
[V:3] ed/c/B | 
[V:4] C,D,E, | 
[V:1] ^F/G/G3/F//G// | 
[V:2] CD^C | 
[V:3] AG/A/B | 
[V:4] A,,B,,G,, | 
[V:1] !fermata!A3 | 
[V:2] !fermata!D3 | 
[V:3] !fermata!^F3 | 
[V:4] !fermata!D,3 | 
[V:1] A/B/B3/A//B// | 
[V:2] ^FG2 | 
[V:3] d2d | 
[V:4] D,G,=F, | 
[V:1] c2d | 
[V:2] GA^F | 
[V:3] c/B/A/G/A | 
[V:4] =E,^F,D, | 
[V:1] BA2 | 
[V:2] DED | 
[V:3] G2^F | 
[V:4] G,C,D, | 
[V:1] !fermata!G3 | 
[V:2] !fermata!D3 | 
[V:3] !fermata!B3 | 
[V:4] !fermata!G,,3 | 
[V:1] AAB | 
[V:2] FFF | 
[V:3] ddd | 
[V:4] D,/=E,/=F,/E,/D, | 
[V:1] c2B | 
[V:2] =EFG | 
[V:3] c/B/AG | 
[V:4] A,D,=E, | 
[V:1] AG2 | 
[V:2] F2=E | 
[V:3] Adc | 
[V:4] F,B,,C, | 
[V:1] !fermata!F3 | 
[V:2] !fermata!C3 | 
[V:3] !fermata!A3 | 
[V:4] !fermata!F,,3 | 
[V:1] cd=e | 
[V:2] AG2 | 
[V:3] A=B^c | 
[V:4] F,2=E, | 
[V:1] f=e2 | 
[V:2] FBA | 
[V:3] d2^c | 
[V:4] D,G,/F,/G,/A,/ | 
[V:1] d2^c | 
[V:2] FBA | 
[V:3] d=e2 | 
[V:4] B,G,A, | 
[V:1] !fermata!d3 | 
[V:2] !fermata!A3 | 
[V:3] !fermata!^f3 | 
[V:4] !fermata!D,3 | 
[V:1] d2d | 
[V:2] B2B | 
[V:3] f2f | 
[V:4] B,,/C,/D,/C,/B,, | 
[V:1] c/B/ A/B/c | 
[V:2] A/G/ F/G/A | 
[V:3] f2_e | 
[V:4] F,2F, | 
[V:1] dcB | 
[V:2] A^FG | 
[V:3] d2d | 
[V:4] ^F,D,G, | 
[V:1] !fermata!A3 | 
[V:2] !fermata!^F3 | 
[V:3] !fermata!d3 | 
[V:4] !fermata!D,3 | 
[V:1] d2d | 
[V:2] GAB | 
[V:3] dcB | 
[V:4] B,^F,G, | 
[V:1] cde | 
[V:2] AG^F | 
[V:3] c2c | 
[V:4] A,2A,, | 
[V:1] dcB | 
[V:2] G^FG | 
[V:3] BAG | 
[V:4] B,,2C, | 
[V:1] !fermata!A3 | 
[V:2] !fermata!^F3 | 
[V:3] !fermata!d3 | 
[V:4] !fermata!D,3 | 
[V:1] A/B/B3/A//B// | 
[V:2] ^F/G/G3/F//G// | 
[V:3] d2d | 
[V:4] DCB, | 
[V:1] c2d | 
[V:2] A/G/^F/G/A | 
[V:3] ced | 
[V:4] A,G,^F, | 
[V:1] BA2 | 
[V:2] G2^F | 
[V:3] ded/c/ | 
[V:4] G,C,D, | 
[V:1] !fermata!G3 |]  
[V:2] !fermata!D3 |]  
[V:3] !fermata!=B3 |]  
[V:4] !fermata!G,,3 |]  



